X:53
T:Linnen Hall. HSJJ.055
T:Lilling Hall,aka. HSJJ.055
M:6/8
L:1/8
Q:3/8=120
S:HSJ Jackson,Wyresdale,Lancs.1823
R:.Jig
O:England
A:Lancashire
H:1823
Z:vmp.Chris Partington.
K:G
G2GA2A|B2c dBG|E2Ec2B|ABG FED|!
G2GA2A|B2c dBG|EcB AGF|G3G3:|!
|:d2de2e|d2g dBG|d2de2e|dBGA3|!
d2de2e|d2gg2f|egf ed^c|”DC”d3D3:|

